X: 10641
T: Down By The Tanyard Side
R: reel
M: 4/4
K: Dmajor
A2|d2 c2 B2 F2|c3 B A2 GE|F2 GE D2 D2|D6 A2 G2|
F2 D2 F2 A2|d3 c B2 cd|e2 dB A2 ce|d6 AG|
F2 D2 F2 A2|d2 c2 B2 cd|e2 dB A2 ce|d6 Ac|
d2 c2 B2 FF|c3 B A2 GE|F2 GE D2 D2|D6||

